dist/icons/home.svg

<svg width="30" height="30" viewBox="0 0 30 30" fill="none" xmlns="http://www.w3.org/2000/svg">
<g clip-path="url(#clip0_1_44)">
<path d="M29.4962 13.4112L16.0362 1.1465C15.4454 0.608087 14.5545 0.608146 13.9639 1.14645L0.503821 13.4113C0.0305604 13.8425 -0.125767 14.507 0.105443 15.104C0.336712 15.701 0.899797 16.0867 1.54005 16.0867H3.68985V28.375C3.68985 28.8622 4.08489 29.2573 4.57209 29.2573H11.9499C12.4371 29.2573 12.8321 28.8623 12.8321 28.375V20.9139H17.1681V28.3751C17.1681 28.8623 17.5632 29.2573 18.0504 29.2573H25.4278C25.915 29.2573 26.31 28.8624 26.31 28.3751V16.0867H28.4603C29.1004 16.0867 29.6636 15.7009 29.8949 15.104C30.1258 14.5069 29.9694 13.8425 29.4962 13.4112Z" fill="white"/>
<path opacity="0.6" d="M26.0795 2.50369H20.1546L26.9618 8.69329V3.38588C26.9618 2.89867 26.5668 2.50369 26.0795 2.50369Z" fill="white"/>
</g>
<defs>
<clipPath id="clip0_1_44">
<rect width="30" height="30" fill="white"/>
</clipPath>
</defs>
</svg>

<svg width="30" height="30" fill="none" xmlns="http://www.w3.org/2000/svg"><g clip-path="url(#a)" fill="#fff"><path d="M29.496 13.411 16.036 1.147a1.531 1.531 0 0 0-2.072 0L.504 13.41a1.528 1.528 0 0 0-.399 1.693 1.53 1.53 0 0 0 1.435.983h2.15v12.288c0 .487.395.882.882.882h7.378a.882.882 0 0 0 .882-.882v-7.461h4.336v7.461c0 .487.395.882.882.882h7.378a.882.882 0 0 0 .882-.882V16.087h2.15a1.53 1.53 0 0 0 1.435-.983 1.53 1.53 0 0 0-.399-1.693Z"/><path opacity=".6" d="M26.08 2.504h-5.925l6.807 6.19V3.385a.882.882 0 0 0-.883-.882Z"/></g><defs><clipPath id="a"><path fill="#fff" d="M0 0h30v30H0z"/></clipPath></defs></svg>
